X: 62
T: Zou ma
L: 1/8
M: 4/4
K: C
D> DD4 [I:setbarnb 1]| 
D2D d d e | 
e4-e (3e/ e/ a/ | 
d (3d/ d/ c/A4 | 
A2>d2 G G/ E/ | 
d6- | 
d (3d/ d/ g/ d cz2 | 
C D EA2A/ G/ | 
G G/ c/ E (3E/ A/ E/ (3E E G | 
D6 | 
E4E A/ G/ | 
E G A d e a/ g/ | 
e (3e/ e/ g/d4 | 
d ca4- | 
a (3a/ a/ c'/ a (3g/ a/ g/ e e | 
a4-a (3g/ a/ g/z2G4-G A | 
A G2<e2(3e/ e/ a/ | 
e d d cz2 | 
G A cd2e/ g/ | 
d cA4 |]

@@@ Tune index: 8730
